!!!OTL: Kohlerlied (3-40), S. 122
!!!id: P1012
**kern
*clefG2
*k[f#]
*G:
{4d
=1
2d
4f#
=2
2g
4a
=3
2f#
4g
=4
4a
4g}
=5
{4a
=6
4a
4b
4a
=7
4g
4f#
4e
=8
4d
4d
4d
=9
2d}
=10
{4a
=11
4g
4a
4g
=12
4a
4a
4g
=13
4cc
4b
4a
=14
2b}
=15
{4d
=16
2b
4a
=17
4a
4b
4g
=18
4d
4e
4f#
=19
2g}
==
*-
!!!minrhy: 4
!!!meters: 3/4 ]  ZZ[4
!!!cut: Kohlerlied (3-40), S. 122
!!!reg: Lothringen
!!!trd: PINCK, Louis: Verklingende Weisen, Bd3, Metz 1933
!!!rhy1: X  X_X  X_X  X_X  XX
!!!rhy2: X  XXX  XXX  XXX  X_
!!!key: P1012  04  G 3/4 ]  ZZ[4
!!!mod: HEPTATONIK IONISCH]  AMBITUS[7b
!!!kad: 1-531
!!!akz: -51-72_21-5-5_1243_32-51_
!!!fot: 'a__b__c__d__
!!!for: 'a__b__b__c__
!!!fok: '/__\__/__~a_
!! PHRAS[AUFTAKTIG]
!!!fkt: Berufslied
!! LOTH VKL
!! PR[21] 2K[8] 2G[29] 3K[4] 3G[0] 4A[4] 4Ü[0] 5A[0] 6K[0] 6G[0]
!! 7K[0] 7G[0] 8A[0] MEHR[0] SI[46] ABS[24] SR[38] SP[8]
!! ST[8] 2k[4] 2g[17] 3k[8] 3g[4] 4d[0] 4ü[0] 5d[0] 6k[0] 6g[0]
!! 7k[0] 7g[0] 8d[0] mehr[0] si[33] dm[+13] sr[21] sp[13]
!! 1F[11] 2F[59] 3F[19] 4F[0] LF[0] 2P[11] 3P[0] 4P[0] TRI[0] DF[4] AB[27]
!! TF[0] U3K[0] U3[0] U4[0] U4Ü[0] U5[4] U6K[0] U6[0] U7K[0] U7[0]
!! N1[12] N2K[0] N2[12] N3K[0] N3[16] N4[20] N4Ü[0] N5[24] N6K[0] N6[8]
!!!n7k: 0] N7[0] O1[4] O2K[0] O2[0] O3K[0] O3[0] HÖ[0
